X:2321 
T:Arrane y vleaun
T:Milking song 
C:Cathy Quayle, The Whalley(?)
C:Traditional
O:Isle of Man
Z:Collected by Mona Douglas 
B:Kiaull Vannin #321 
M:3/4 
L:1/4
K:D
d/f/|gf e/d/|Bc B/G/|AB d/c/|dd d/f/|gf e/c/|cc B/F/|AB d/c/|dd d/f/|
aa b/g/|ee d/f/|bb g/f/|a (g/f/) e/d/|da f/d/|B (c/d/) f/d/|AB d>c|d2||

